X:1
T:Turn Out The Stars
T:Turn Out The Stars
T:Bill Evans / Gene Lees
T:1987 Ludlow Music, Inc.
C:Bill Evans, Gene Lees
Z:All Rights Reserved
L:1/4
M:4/4
K:C
V:1 treble 
%%MIDI program 40
V:1
"Bm7b5" z F"E7b9" F E |"Am7" E2-"A7b9" E2 |"Dm7" z F"G7" F E |"Cmaj7" E2-"Am7" E2 | %4
"Fm7" _A2-"Bb7" A/C/D/_E/ |"Ebmaj7" F G"Cm7" _A _B |"Am7" c2-"D7" c/E/^F/G/ |"Gmaj7" A B"Em7" c d | %8
"C#m7" z e"F#7" e ^d |"Bmaj7" ^d2-"G#m7" d2 |"C#m7" z ^c ^d e |"Bbm7b5" _e _d"Eb+7" e _c | %12
"Abm7" _d2- d/_c/d/_e/ |"Fm7b5" _d =d"Bb7#9" _d _c |"Ebm7" _B3/2 _A/"Db" _G2- | %15
"Cbmaj7" G _A"Ebm7/Bb" _B _d |"Em7/A" ^f A"A7b9" _B3/2 e/ |"Dmaj7/A" e2- (3e/^c/B/ A | %18
"Em7/A" d2-"A7" d/G/A/B/ |"Dmaj7/A" ^c3/2 A/4G/4 ^F2 |"Dm7/G" e G"G7b9" _A3/2 e/ | %21
"Cmaj7/G" d2- (3d/B/A/ G |"Dm7/G" z/ c/ A"G7" B c |"Cmaj7" d c"C7" d e |"F#m7/B" ^f g"B+7" B ^d | %25
"Em7" e2-"Bb7#11" e2 |"A+7" z f A ^c |"Dm7" d2-"Ab7#11" d2 |"G+7" z ^d G B | %29
"Cm7" d c"Eb7" c3/2 _B/ |"Abmaj7" _B _A"C+7" A3/2 G/ |"Fm7" G2- G3/2 _E/ | %32
"Dm7b5" F G"G7#9" _B3/2 _A/ |"Cm7" G3/2 _A/"Eb7" A G |"Abmaj7" G3/2 F/"G7" F3/2 E/ | %35
"Cmaj7" E2-"F#7" E2 |"Bm7b5" z F"E7b9" F E |"Am" E4 |"Ebm7/Ab" z F"Ab7b9" F E |"C#m" E2-"F#7" E2 |] %40

